X: 1
T: Captain White (J-24; \251James Kerr)
I: Captain White	J-34	D	jig
M: 6/8
R: jig
K: D
A/F/| "D"DFA d2f| "Em"edc "G"B2d| "D"A2d "Bm"F2B| "G"AGF "A7"E2F|
      "D"DFA d2f| "Em"edc "G"B2d| "D"A2d F2B| "A7"ABc "D"d2:|
f| "A"e^de A2f| e^de "D"a2f| "A"efe "E7"dcB| "A"A2B c2f|
   "A"e^de A2f| e^de a2f| "E7"efe dcB| "A"ABA "A7"GFE|
   "D"D2f fef| d2A A2A| "D"A2f fef| "A7"g2e e2e|
   "D"A2f fef| "Bm"d2A A2A| "G"Bcd "A"edc| "D"(d3 d2)|]

